img/benefits/group-6.svg

<svg width="27" height="33" viewBox="0 0 27 33" fill="none" xmlns="http://www.w3.org/2000/svg">
<path d="M13.1966 33C13.3906 33 13.5902 32.9544 13.7956 32.8631C14.001 32.7718 14.1779 32.6862 14.3262 32.6063C16.6426 31.1686 18.5796 29.9448 20.1372 28.9349C21.6948 27.9251 22.9328 26.9894 23.8514 26.1279C24.77 25.2663 25.4232 24.362 25.8112 23.4149C26.1992 22.4678 26.3932 21.3439 26.3932 20.043V7.20591C26.3932 6.24741 26.242 5.5542 25.9396 5.1263C25.6372 4.69839 25.0296 4.30757 24.1167 3.95384C23.4549 3.71421 22.8045 3.46603 22.1655 3.20928C21.5265 2.95254 20.8846 2.7015 20.2399 2.45617C19.5952 2.21084 18.9533 1.96266 18.3143 1.71162C17.6753 1.46058 17.0306 1.21525 16.3802 0.975622C15.7298 0.735996 15.0794 0.502075 14.4289 0.273859C14.2007 0.193983 13.9925 0.128371 13.8042 0.0770228C13.6159 0.0256743 13.4134 0 13.1966 0C12.9912 0 12.7915 0.0256743 12.5975 0.0770228C12.4035 0.128371 12.1981 0.193983 11.9813 0.273859C11.3309 0.513485 10.6805 0.755965 10.0301 1.0013C9.37967 1.24663 8.73211 1.49481 8.0874 1.74585C7.44269 1.99689 6.79798 2.24507 6.15327 2.4904C5.50856 2.73574 4.8667 2.98107 4.2277 3.2264C3.58869 3.47173 2.93828 3.71421 2.27645 3.95384C1.36359 4.29616 0.755965 4.68413 0.453579 5.11774C0.151193 5.55135 0 6.24741 0 7.20591V20.043C0 21.3439 0.199689 22.4593 0.599066 23.3893C0.998444 24.3192 1.66027 25.2121 2.58454 26.0679C3.50882 26.9238 4.74689 27.8623 6.29876 28.8836C7.85062 29.9048 9.77905 31.1457 12.084 32.6063C12.221 32.6862 12.3921 32.7718 12.5975 32.8631C12.8029 32.9544 13.0026 33 13.1966 33Z" fill="#0037FC"/>
<path d="M5.81934 17.0306C5.81934 17.1675 5.86213 17.2702 5.94771 17.3387C6.03329 17.4071 6.14454 17.4414 6.28147 17.4414H12.2721L9.00295 26.2391C8.91166 26.4673 8.91166 26.6527 9.00295 26.7954C9.09423 26.938 9.22831 27.0122 9.40518 27.0179C9.58204 27.0236 9.73894 26.9351 9.87587 26.7526L19.5636 14.6001C19.6891 14.3947 19.7519 14.2406 19.7519 14.1379C19.7519 14.001 19.712 13.8983 19.6321 13.8299C19.5522 13.7614 19.4438 13.7272 19.3069 13.7272H13.2991L16.5683 4.92944C16.671 4.70122 16.6767 4.5158 16.5854 4.37316C16.4941 4.23053 16.3572 4.15636 16.1746 4.15065C15.9921 4.14494 15.8323 4.23338 15.6954 4.41595L6.00761 16.5684C5.8821 16.7738 5.81934 16.9279 5.81934 17.0306Z" fill="white"/>
</svg>

<svg width="27" height="33" fill="none" xmlns="http://www.w3.org/2000/svg"><path d="M13.197 33c.194 0 .393-.046.599-.137.205-.091.382-.177.53-.257a357.703 357.703 0 005.811-3.671c1.558-1.01 2.796-1.946 3.714-2.807.919-.862 1.572-1.766 1.96-2.713.388-.947.582-2.071.582-3.372V7.206c0-.959-.151-1.652-.453-2.08-.303-.428-.91-.818-1.823-1.172a60.27 60.27 0 01-1.951-.745 112.19 112.19 0 00-1.926-.753 192.48 192.48 0 01-1.926-.744A96.975 96.975 0 0016.38.976c-.65-.24-1.3-.474-1.951-.702a9.373 9.373 0 00-.625-.197A2.302 2.302 0 0013.197 0c-.206 0-.405.026-.6.077a6.758 6.758 0 00-.616.197 211.96 211.96 0 00-3.894 1.472c-.644.25-1.289.5-1.934.744l-1.925.736c-.64.246-1.29.488-1.952.728-.912.342-1.52.73-1.822 1.164C.15 5.55 0 6.248 0 7.206v12.837c0 1.3.2 2.416.6 3.346.398.93 1.06 1.823 1.985 2.679.924.856 2.162 1.794 3.714 2.816a411.302 411.302 0 005.785 3.722c.137.08.308.166.514.257.205.091.405.137.599.137z" fill="#0037FC"/><path d="M5.82 17.03c0 .137.042.24.128.309a.518.518 0 00.333.102h5.991L9.003 26.24c-.091.228-.091.414 0 .556a.467.467 0 00.402.223c.177.006.334-.083.47-.265l9.69-12.154c.125-.205.188-.36.188-.462 0-.137-.04-.24-.12-.308a.483.483 0 00-.325-.103H13.3l3.27-8.798c.102-.228.108-.413.016-.556a.474.474 0 00-.41-.222c-.183-.006-.343.082-.48.265L6.008 16.568c-.126.206-.189.36-.189.463z" fill="#fff"/></svg>
